X:1
T: Glasgow Lasses
C:
R:Strathspey
Q: 128
K:F
M:4/4
L:1/16
|:C2|F3G FA3 c3A A3f|F3G FA3 B3G G3A|F3G FA3 c3A A3c|d3e f3g af3 f2C2|
F3G FA3 c3A A3f|F3G FA3 B3G G3A|F3G FA3 c3A A3c|d3e f3g af3 f2fg|
a3g f3c Ac3 c2fg|a3g f3c eg3 g2fg|a3g fc3 def2 cA3|Bcd2 G3B AF3 F2fg|
a3g f3c Ac3 c2fg|a3g f3c eg3 g2fg|a3g g3e fc3 f3A|Bcd2 G3B AF3 F2:|
